X: 11353
T: CIRCASSIAN CIRCLE
Q: "Lively dancing time."
%R: reel
B: W. Hamilton "Universal Tune-Book" Vol. 1 Glasgow 1844 p.135 #3
S: http://imslp.org/wiki/Hamilton's_Universal_Tune-Book_(Various)
Z: 2016 John Chambers <jc:trillian.mit.edu>
M: C
L: 1/8
K: Bb
% - - - - - - - - - - - - - - - - - - - - - - - - -
d/c/ |\
BFdc B2d2 | BFdc B2d2 | cFed c2e2 | cFed c2e2 |\
BFdc B2d2 | BFdc B2d2 | cdec AFGA | B2d2 B2 :|
|: z2 |\
dBfe d2f2 | dBdf bfdB | cFed c2e2 | cdcB Acf2 |\
dBfe d2f2 | dBdf bfdB | ABcB AFGA | B2d2B2 :|
% - - - - - - - - - - - - - - - - - - - - - - - - -

%%sep 1 1 500
%%sep 1 1 500

